brandFactory_export/2.Regular/Casino_2Regular.svg

<?xml version="1.0" encoding="UTF-8"?>
<svg width="24px" height="24px" viewBox="0 0 24 24" version="1.1" xmlns="http://www.w3.org/2000/svg" xmlns:xlink="http://www.w3.org/1999/xlink">
    <title>2.Regular/Casino_2Regular</title>
    <g id="Symbols" stroke="none" stroke-width="1" fill="none" fill-rule="evenodd">
        <g id="2.Regular/Casino_2Regular" fill="#5CB615" fill-rule="nonzero">
            <path d="M20.6991597,18.6890756 C21.492437,17.6369748 21.9428571,16.2319328 22.0403361,14.4907563 L20.3764706,14.4907563 C20.2756303,15.6571429 19.9596639,16.6352941 19.4117647,17.4016807 L20.6991597,18.6890756 L20.6991597,18.6890756 Z M15.4588235,21.0588235 C17.1932773,20.9613445 18.6016807,20.5210084 19.6504202,19.7378151 L18.3596639,18.4436975 C17.589916,18.9815126 16.6184874,19.297479 15.4588235,19.394958 L15.4588235,21.0588235 Z M12.010084,17.3042017 C12.6789916,17.7344538 13.5764706,17.9663866 14.712605,17.9663866 C16.1210084,17.9663866 17.1831933,17.6302521 17.8756303,16.9680672 C18.5882353,16.2823529 18.9512605,15.1932773 18.9512605,13.7344538 C18.9512605,12.2756303 18.5882353,11.1831933 17.8756303,10.4941176 C17.7915966,10.4134454 17.6840336,10.3495798 17.589916,10.2789916 C17.4957983,11.2 17.3142857,12.0470588 17.0352941,12.8067227 C16.6420168,13.8756303 16.0638655,14.7831933 15.3008403,15.5193277 C14.8907563,15.9092437 14.4302521,16.2453782 13.9260504,16.5310924 C13.3478992,16.8571429 12.7058824,17.112605 12.010084,17.3042017 L12.010084,17.3042017 Z M13.9764706,21.0588235 L13.9764706,19.394958 C12.8168067,19.3008403 11.8420168,18.9848739 11.0722689,18.4470588 L9.77815126,19.7411765 C10.8336134,20.5243697 12.2420168,20.9647059 13.9764706,21.0588235 Z M8.73277311,18.6957983 L9.75798319,17.6705882 C9.45210084,17.687395 9.14285714,17.7008403 8.82352941,17.7008403 C8.58151261,17.7008403 8.34957983,17.687395 8.11764706,17.6773109 C8.29243697,18.0504202 8.50084034,18.3831933 8.73277311,18.6957983 L8.73277311,18.6957983 Z M6.05714286,15.8789916 C6.53781513,16.010084 7.06218487,16.1008403 7.61680672,16.1546218 C7.77478992,16.1680672 7.93277311,16.1848739 8.09411765,16.194958 L8.09411765,14.5310924 C7.91596639,14.5142857 7.71764706,14.5176471 7.54957983,14.4941176 C7.49243697,14.4840336 7.44537815,14.4672269 7.39159664,14.4571429 C6.8605042,14.3663866 6.38655462,14.2084034 5.94957983,14.010084 C5.93277311,14.0033613 5.91260504,13.9932773 5.89915966,13.9865546 C5.64705882,13.8722689 5.41176471,13.7378151 5.18991597,13.5865546 L3.89579832,14.8806723 C4.50084034,15.3243697 5.22689076,15.6571429 6.05714286,15.8789916 L6.05714286,15.8789916 Z M1.51596639,9.62352941 C1.61680672,11.3680672 2.06386555,12.7764706 2.85378151,13.8285714 L4.14117647,12.5411765 C3.59663866,11.7714286 3.28067227,10.7932773 3.18319328,9.62689076 L1.51596639,9.62689076 L1.51596639,9.62352941 Z M2.83697479,3.91932773 C2.05378151,4.97815126 1.60672269,6.38991597 1.51260504,8.13781513 L3.17647059,8.13781513 C3.27058824,6.96470588 3.57983193,5.97647059 4.1210084,5.20336134 L2.83697479,3.91932773 Z M8.09747899,1.52268908 C6.34957983,1.61680672 4.93109244,2.06722689 3.8789916,2.86386555 L5.17310924,4.15798319 C5.94621849,3.60672269 6.92773109,3.28067227 8.10084034,3.18655462 L8.10084034,1.52268908 L8.09747899,1.52268908 Z M8.8302521,4.61848739 C7.42521008,4.61848739 6.36302521,4.95462185 5.67394958,5.62016807 C4.96470588,6.3092437 4.60168067,7.40168067 4.60168067,8.8605042 C4.60168067,10.3226891 4.96134454,11.4117647 5.67058824,12.0941176 C5.75798319,12.1781513 5.86554622,12.2386555 5.96302521,12.312605 C6.34957983,12.6016807 6.82689076,12.8067227 7.39159664,12.9344538 C7.50252101,12.9579832 7.6,12.9848739 7.71764706,13.005042 C8.0605042,13.0588235 8.42352941,13.092437 8.82689076,13.092437 C8.90756303,13.092437 8.97142857,13.0789916 9.0487395,13.0756303 C9.36134454,13.0655462 9.6605042,13.0453782 9.9394958,13.0016807 C10.1512605,12.9680672 10.3495798,12.9243697 10.5411765,12.8672269 C11.1260504,12.702521 11.6168067,12.4470588 11.989916,12.0907563 C12.5579832,11.5428571 12.8907563,10.7361345 13.0084034,9.70084034 C13.0386555,9.43193277 13.0621849,9.15630252 13.0621849,8.85714286 C13.0621849,8.61848739 13.0352941,8.40336134 13.0184874,8.18487395 C12.9613445,7.55294118 12.8235294,7.00840336 12.6084034,6.54789916 C12.4403361,6.19159664 12.2420168,5.87226891 11.9865546,5.61680672 C11.8487395,5.48571429 11.6907563,5.37815126 11.5260504,5.27394958 C10.8571429,4.84705882 9.96302521,4.61848739 8.8302521,4.61848739 L8.8302521,4.61848739 Z M9.57647059,1.52268908 L9.57647059,3.18655462 C10.7495798,3.28403361 11.7277311,3.61008403 12.5008403,4.16134454 L13.7915966,2.87058824 C12.7361345,2.07058824 11.3210084,1.62016807 9.57647059,1.52268908 Z M13.7680672,14.8705882 L12.4773109,13.5764706 C12.312605,13.6907563 12.1445378,13.8016807 11.9596639,13.892437 C11.5327731,14.1142857 11.0521008,14.2789916 10.5277311,14.389916 C10.3932773,14.4201681 10.2420168,14.4302521 10.1008403,14.4537815 C10.0134454,14.4672269 9.92605042,14.4806723 9.83529412,14.4907563 C9.74789916,14.5008403 9.66722689,14.5176471 9.57647059,14.5277311 L9.57647059,16.1915966 C10.0537815,16.1613445 10.5042017,16.107563 10.9310924,16.0268908 C11.687395,15.8857143 12.3630252,15.6638655 12.9579832,15.3613445 C13.2470588,15.2134454 13.5193277,15.0554622 13.7680672,14.8705882 L13.7680672,14.8705882 Z M13.5327731,12.5344538 L14.0907563,13.092437 L14.8201681,13.8218487 C15.0016807,13.5798319 15.1630252,13.3176471 15.307563,13.0386555 C15.5596639,12.5579832 15.7647059,12.0268908 15.9058824,11.4352941 C16.0369748,10.8840336 16.1210084,10.2890756 16.1579832,9.64705882 L16.1579832,9.62016807 L14.4941176,9.62016807 C14.4638655,9.99663866 14.4067227,10.3495798 14.3294118,10.6857143 C14.1647059,11.394958 13.902521,12.0134454 13.5327731,12.5344538 L13.5327731,12.5344538 Z M14.8302521,3.92605042 L13.8453782,4.91092437 L13.5495798,5.20672269 C13.7142857,5.44537815 13.8521008,5.70756303 13.9764706,5.97983193 C14.0403361,6.11428571 14.1176471,6.23529412 14.1680672,6.37983193 C14.3394958,6.86722689 14.4302521,7.42521008 14.487395,8.01680672 C14.5647059,8.01344538 14.6319328,8 14.7092437,8 C14.9714286,8 15.210084,8.03361345 15.4554622,8.05378151 C15.6941176,8.07394958 15.9361345,8.0907563 16.1579832,8.13109244 L16.1579832,8.13781513 L16.1882353,8.13781513 C16.1781513,8.13445378 16.1680672,8.13109244 16.1579832,8.13109244 C16.1243697,7.52605042 16.0504202,6.95462185 15.9327731,6.4302521 C15.8151261,5.9092437 15.6605042,5.42857143 15.4588235,4.98823529 L15.4588235,4.96470588 L15.4521008,4.96470588 C15.4420168,4.94453782 15.4352941,4.92436975 15.4218487,4.90420168 C15.2537815,4.54789916 15.0521008,4.22521008 14.8302521,3.92605042 L14.8302521,3.92605042 Z M19.6739496,7.73781513 C19.0655462,7.27731092 18.3327731,6.93781513 17.4957983,6.71260504 C17.5932773,7.30420168 17.6436975,7.9394958 17.6571429,8.60840336 C17.9159664,8.72941176 18.1579832,8.86722689 18.3831933,9.02857143 L19.6739496,7.73781513 Z M22.0403361,13.0084034 C21.9462185,11.2638655 21.4991597,9.85210084 20.712605,8.79327731 L19.4319328,10.0773109 C19.9764706,10.8504202 20.2857143,11.8352941 20.3798319,13.0084034 L22.0403361,13.0084034 Z M21.1798319,7.0789916 C22.7495798,8.59495798 23.5462185,10.8336134 23.5462185,13.7344538 C23.5462185,16.6386555 22.7495798,18.8739496 21.1798319,20.3831933 C19.6739496,21.8319328 17.4957983,22.5647059 14.7092437,22.5647059 C11.9193277,22.5647059 9.74453782,21.8285714 8.24537815,20.3798319 C7.44201681,19.6067227 6.84705882,18.6319328 6.45378151,17.4823529 C4.78319328,17.1731092 3.40504202,16.5210084 2.36638655,15.512605 C0.803361345,14.0067227 0.0134453782,11.7714286 0.0134453782,8.86722689 C0.0134453782,5.96302521 0.806722689,3.72436975 2.36638655,2.21176471 C3.86890756,0.752941176 6.04369748,0.0134453782 8.8302521,0.0134453782 C11.6168067,0.0134453782 13.794958,0.752941176 15.3042017,2.21176471 C16.107563,2.98487395 16.7058824,3.95630252 17.0991597,5.10252101 C18.7630252,5.41176471 20.1378151,6.06722689 21.1798319,7.0789916 Z M7.27394958,7.29747899 C7.10252101,7.44201681 7.15966387,7.77815126 7.19327731,7.91932773 C7.21680672,8.02016807 7.26722689,8.12773109 7.30084034,8.23193277 C7.42184874,8.59159664 7.58319328,8.95462185 7.82521008,9.33109244 C7.92941176,9.49915966 8.0302521,9.63697479 8.13109244,9.77142857 C8.27563025,9.95966387 8.42689076,10.1344538 8.63529412,10.3495798 C8.66218487,10.3798319 8.74621849,10.4672269 8.81680672,10.5210084 L8.84033613,10.5378151 L8.84369748,10.5378151 C8.92773109,10.4672269 9.01512605,10.3764706 9.03865546,10.3495798 C9.27731092,10.097479 9.44537815,9.90588235 9.60672269,9.68403361 C9.68403361,9.57647059 9.76470588,9.46554622 9.8487395,9.33445378 C10.0705882,8.98823529 10.2218487,8.65210084 10.3428571,8.32268908 C10.389916,8.18823529 10.4504202,8.05378151 10.4806723,7.92268908 C10.5176471,7.75798319 10.5579832,7.46218487 10.410084,7.31764706 C10.4067227,7.31428571 10.4067227,7.30420168 10.4,7.30084034 C10.3260504,7.23697479 10.2084034,7.19663866 10.0806723,7.18991597 C9.90252101,7.17647059 9.72773109,7.2302521 9.55294118,7.32436975 C9.5092437,7.34789916 9.46554622,7.37478992 9.42184874,7.40168067 C9.36470588,7.43193277 9.31092437,7.46218487 9.25378151,7.49915966 L9.07563025,7.60672269 L8.65882353,7.61344538 L8.51428571,7.54621849 L8.46722689,7.52605042 C8.31260504,7.43529412 8.21512605,7.37815126 8.1210084,7.32773109 C8.09747899,7.31428571 8.07394958,7.31092437 8.04705882,7.29747899 C7.9092437,7.23361345 7.76470588,7.19327731 7.6302521,7.19327731 L7.58991597,7.19327731 C7.46554622,7.19327731 7.34453782,7.23361345 7.27394958,7.29747899 L7.27394958,7.29747899 Z M5.7512605,8.26218487 C5.54957983,7.40840336 5.75462185,6.6487395 6.3092437,6.16806723 C6.63193277,5.89243697 7.05882353,5.72773109 7.51596639,5.70420168 C7.97310924,5.68067227 8.42016807,5.79159664 8.83697479,6.02352941 C9.25378151,5.79159664 9.71092437,5.68067227 10.1579832,5.70420168 C10.1915966,5.70756303 10.2252101,5.7210084 10.2588235,5.72436975 C10.6756303,5.76806723 11.0689076,5.91596639 11.3647059,6.16806723 C11.5495798,6.32941176 11.6806723,6.53109244 11.7848739,6.74621849 C11.9932773,7.17983193 12.0537815,7.69411765 11.9193277,8.26218487 C11.8957983,8.3697479 11.8420168,8.48067227 11.8084034,8.59159664 C11.7210084,8.87394958 11.610084,9.15966387 11.4655462,9.44537815 C11.3546218,9.67058824 11.2403361,9.90252101 11.092437,10.1310924 C11.0521008,10.1915966 11.0151261,10.2453782 10.9781513,10.2991597 C10.7159664,10.692437 10.4705882,10.9882353 10.107563,11.3680672 C10.0470588,11.4352941 9.86890756,11.610084 9.71764706,11.7210084 C9.56302521,11.8319328 9.38823529,11.9058824 9.21008403,11.9563025 C9.17983193,11.9630252 9.15294118,11.9764706 9.12605042,11.9831933 C9.07226891,11.9966387 8.99495798,12.010084 8.91428571,12.0134454 L8.84033613,12.0168067 L8.73277311,12.0134454 C8.67226891,12.010084 8.59159664,11.9966387 8.5210084,11.9764706 C8.33613445,11.9394958 8.13445378,11.8487395 7.95294118,11.7210084 C7.81512605,11.6168067 7.66722689,11.4756303 7.59663866,11.405042 L7.56638655,11.3747899 C7.14621849,10.9445378 6.88739496,10.6184874 6.57478992,10.1310924 C6.53109244,10.0638655 6.50420168,9.99663866 6.46386555,9.92941176 C6.13445378,9.37142857 5.88235294,8.81008403 5.7512605,8.26218487 L5.7512605,8.26218487 Z" id="Casino_2Regular"></path>
        </g>
    </g>
</svg>

<svg width="24" height="24" viewBox="0 0 24 24" xmlns="http://www.w3.org/2000/svg"><path d="M20.7 18.69c.792-1.053 1.243-2.458 1.34-4.2h-1.664c-.1 1.167-.416 2.145-.964 2.912l1.287 1.287zm-5.241 2.369c1.734-.098 3.143-.538 4.191-1.321l-1.29-1.294c-.77.538-1.742.853-2.901.951v1.664zm-3.449-3.755c.669.43 1.566.662 2.703.662 1.408 0 2.47-.336 3.163-.998.712-.686 1.075-1.775 1.075-3.234 0-1.458-.363-2.55-1.075-3.24-.084-.08-.192-.144-.286-.215-.094.921-.276 1.768-.555 2.528-.393 1.069-.971 1.976-1.734 2.712-.41.39-.87.726-1.375 1.012a8.462 8.462 0 01-1.916.773zm1.966 3.755v-1.664c-1.16-.094-2.134-.41-2.904-.948l-1.294 1.294c1.056.783 2.464 1.224 4.198 1.318zm-5.243-2.363l1.025-1.025c-.306.016-.615.03-.934.03-.242 0-.474-.014-.706-.024.174.373.383.706.615 1.019zm-2.676-2.817c.48.131 1.005.222 1.56.276.158.013.316.03.477.04v-1.664c-.178-.017-.376-.013-.544-.037-.058-.01-.105-.027-.158-.037a5.837 5.837 0 01-1.493-.47 4.704 4.704 0 01-.71-.4L3.897 14.88c.605.443 1.33.776 2.161.998zM1.516 9.624c.1 1.744.548 3.152 1.338 4.205L4.14 12.54c-.544-.77-.86-1.748-.958-2.914H1.516v-.003zm1.321-5.705c-.783 1.06-1.23 2.47-1.324 4.219h1.663c.095-1.173.404-2.162.945-2.935L2.837 3.92zm5.26-2.396c-1.747.094-3.166.544-4.218 1.34l1.294 1.295c.773-.551 1.755-.877 2.928-.971V1.523h-.004zm.733 3.095c-1.405 0-2.467.337-3.156 1.002-.71.69-1.072 1.782-1.072 3.24 0 1.463.36 2.552 1.069 3.234.087.084.195.145.292.219.387.289.864.494 1.429.621.11.024.208.05.326.071.343.054.706.087 1.109.087.08 0 .144-.013.222-.016.312-.01.612-.03.89-.074.212-.034.41-.078.602-.135.585-.164 1.076-.42 1.449-.776.568-.548.9-1.355 1.018-2.39a7.42 7.42 0 00.054-.844c0-.239-.027-.454-.044-.672-.057-.632-.194-1.177-.41-1.637-.168-.356-.366-.676-.621-.931a2.927 2.927 0 00-.46-.343c-.67-.427-1.564-.656-2.697-.656zm.746-3.095v1.664c1.174.097 2.152.423 2.925.974l1.29-1.29c-1.055-.8-2.47-1.25-4.215-1.348zm4.192 13.348l-1.29-1.295a4.013 4.013 0 01-.518.316 5.622 5.622 0 01-1.432.498c-.135.03-.286.04-.427.064a6.318 6.318 0 01-.266.037c-.087.01-.168.027-.259.037v1.664c.478-.03.928-.084 1.355-.165a7.479 7.479 0 002.027-.666c.29-.148.561-.306.81-.49zm-.235-2.337l.558.558.73.73c.18-.242.342-.504.487-.783.252-.481.457-1.012.598-1.604.131-.551.215-1.146.252-1.788V9.62h-1.664c-.03.377-.087.73-.165 1.066-.164.709-.426 1.327-.796 1.848zm1.297-8.608l-.985.985-.295.296c.164.238.302.5.426.773.064.134.142.255.192.4.171.487.262 1.045.32 1.637.077-.004.144-.017.221-.017.262 0 .501.034.746.054.24.02.481.037.703.077v.007h.03a.098.098 0 00-.03-.007 10.458 10.458 0 00-.225-1.7 7.328 7.328 0 00-.474-1.443v-.023h-.007c-.01-.02-.017-.04-.03-.06a5.775 5.775 0 00-.592-.979zm4.844 3.812c-.608-.46-1.341-.8-2.178-1.025.097.591.148 1.226.161 1.895.259.121.501.26.726.42l1.29-1.29zm2.366 5.27c-.094-1.744-.54-3.156-1.327-4.215l-1.281 1.284c.544.773.854 1.758.948 2.931h1.66zm-.86-5.929c1.57 1.516 2.366 3.755 2.366 6.655 0 2.905-.796 5.14-2.366 6.65-1.506 1.448-3.684 2.18-6.47 2.18-2.79 0-4.965-.735-6.465-2.184-.803-.773-1.398-1.748-1.791-2.898-1.67-.309-3.049-.961-4.088-1.97C.803 14.008.013 11.773.013 8.868c0-2.904.794-5.143 2.353-6.655C3.87.752 6.044.013 8.83.013c2.787 0 4.965.74 6.474 2.199.804.773 1.402 1.744 1.795 2.89 1.664.31 3.039.965 4.08 1.977zm-13.906.218c-.171.145-.114.481-.08.622.023.101.073.209.107.313.12.36.282.723.524 1.1a5.83 5.83 0 00.81 1.018c.027.03.111.117.182.171l.023.017h.004a6.498 6.498 0 00.763-.854c.077-.108.158-.218.242-.35.222-.346.373-.682.494-1.011.047-.135.107-.27.138-.4.037-.165.077-.46-.07-.605-.004-.004-.004-.014-.011-.017a.543.543 0 00-.32-.111.96.96 0 00-.527.134c-.044.024-.087.05-.131.078-.057.03-.111.06-.168.097l-.178.108-.417.006-.145-.067-.047-.02a10.57 10.57 0 00-.346-.198c-.024-.014-.047-.017-.074-.03a1.017 1.017 0 00-.417-.105h-.04a.488.488 0 00-.316.104zm-1.523.965c-.201-.854.004-1.613.558-2.094.323-.276.75-.44 1.207-.464.457-.023.904.088 1.321.32a2.458 2.458 0 011.321-.32c.034.004.067.017.1.02.418.044.81.192 1.107.444.185.161.316.363.42.578.208.434.269.948.134 1.516-.023.108-.077.219-.11.33a5.457 5.457 0 01-.343.853c-.111.226-.226.458-.374.686l-.114.168c-.262.393-.507.69-.87 1.07-.06.066-.24.241-.39.352-.155.11-.33.185-.508.235-.03.007-.057.02-.084.027a1.1 1.1 0 01-.212.03l-.074.004-.107-.004a1.04 1.04 0 01-.212-.037 1.55 1.55 0 01-.568-.255 3.839 3.839 0 01-.356-.316l-.03-.03a7.066 7.066 0 01-.992-1.244c-.044-.067-.07-.134-.111-.202-.33-.558-.582-1.119-.713-1.667z" fill="#5CB615" fill-rule="nonzero"/></svg>
